X:236
T:Carey's Dream
B:Joyce, P. W.; "Old Irish Folk Music and Songs"
R:reel
L:1/8
M:C
Z:Allan Garvin
K:D
A2 AF DFAF|GFEF GBdB|A2 AF DFAF|GBAG FDdB|
A2 AF DFAF|GFEF GBdB|ABAF dcdA|GBAG FD D2:|
d4 d2 ed|cdef gfed|cAeA fAeA|cdef gfed|
faeg afge|cege d3/2e/fg|afge fdec|1 dABG FAdB:|2 dBAF D2 D2|]
